X:85
T:Polka Keturine
C:Traditional
O:Lithuania
R:Polka
B:Muzika \vSoki\;u Pamok\.el\.ese, Stasys Kazlauskas (\vSiauli\;u pedagoginis institutas), \vSiauliai, 1997
Z:Bert Van Vreckem <http://flanders.blackmill.net/music/>
M:2/4
L:1/8
K:G
"G"GB AG|"G"d2 d2|"D"Ac BA|"G"G2 G2|"G"GB AG|"G"dd d2|
"D"Ac "G"BA|"G"G2 G2|:("C"ce) c2|("G"Bd cB)|("D"Ac BA)|[1GB AG:|[2"G"G2G2|]

